!!key: tele-40-09-Fan-Spi-02-Flute
!!!COM: Telemann, Georg Philipp
!!!CDT: 1681/03/14-1767/06/25
!!!CBL: Magdeburg
!!!CDL: Hamburg
!!!CNT: German
!!!TWV: 40:9
!!!TWV-genre: 40
!!!TWV-work: 9
!!!OPR: 12 Fantasias for transverse flute without bass
!!!OTL: Fantasia 8
!!!OMD: Spirituoso
!!!OMV: 2
!!!ODT: ca. 1732–1733
!!!AST: Late Baroque
!!!AGN: Fantasia
!!!AMT: Compound quadruple
!!!AIN: Transverse flute
**kern	**dynam
*ICww	*
*Iflt	*
*clefG2	*
*k[f#]	*
*e:	*
*M12/8	*
=1	=1
4.e`	.
4.f#`	.
8gL	.
8e	.
8bJ	.
8gL	.
8e	.
8ccJ	.
=2	=2
8aL	.
8f#	.
8ccJ	.
8aL	.
8f#	.
8bJ	.
8gL	.
8e	.
8gJ	.
8bL	.
8g	.
8bJ	.
=3	=3
8eeL	.
8ff#	.
8ggJ	.
4cc#X	.
8aa	.
8ddL	.
8ee	.
8ff#J	.
4b	.
8gg	.
!!LO:LB:g=original
=4	=4
8cc#XL	.
8dd	.
8eeJ	.
4a#X	.
8ff#	.
4.b`	.
4.cc#`	.
=5	=5
8ddL	.
8b	.
8ff#J	.
8ddL	.
8b	.
8ggJ	.
8eeL	.
8cc#X	.
8ggJ	.
8eeL	.
8cc#	.
8ff#J	.
=6	=6
8ddL	.
8b	.
8ddJ	.
8ff#L	.
8dd	.
8ff#J	.
8bbL	.
8ccc#X	.
8dddJ	.
4b	.
8a	.
!!LO:LB:g=original
=7	=7
8g#XL	.
8b	.
8eeJ	.
8ddL	.
8cc	.
8bJ	.
8aaL	.
8bb	.
8cccJ	.
4a	.
8gn	.
=8	=8
8f#L	.
8a	.
8ddJ	.
8ccL	.
8b	.
8aJ	.
8ggL	.
8ff#	.
8ggJ	.
8bL	.
8dd	.
8ggJ	.
=9	=9
8ggL	.
8ff#	.
8ggJ	.
8ccL	.
8ee	.
8ggJ	.
8ggL	.
8ff#	.
8ggJ	.
8aL	.
8aa	.
8ggJ	.
=10	=10
8ff#L	.
8aa	.
8dddJ	.
4r	.
8r	.
4.g`	.
4.a`	.
!!LO:LB:g=original
=11	=11
8bL	.
8g	.
8ddJ	.
8bL	.
8g	.
8eeJ	.
8ccL	.
8a	.
8eeJ	.
8ccL	.
8a	.
8ddJ	.
=12	=12
8bL	.
8g	.
8bJ	.
8ddL	.
8b	.
8ddJ	.
8ggL	.
8ffn	.
8eeJ	.
4ff	.
8ddd	.
=13	=13
8eeL	.
8dd	.
8ccJ	.
4dd	.
8bb	.
8ccL	.
8ee	.
8aaJ	.
4b	.
8gg	.
!!LO:LB:g=original
=14	=14
4a	.
8ffn	.
4g	.
8ee	.
8fnL	.
8a	.
8ddJ	.
4e	.
8cc	.
=15	=15
8dL	.
8cc	.
8bJ	.
8ccL	.
8b	.
8aJ	.
8eL	.
8g#X	.
8bJ	.
4r	.
8r	.
=16	=16
4.a`	.
4.b`	.
8ccL	.
8a	.
8eeJ	.
8ccL	.
8a	.
8ffnJ	.
!!LO:LB:g=original
=17	=17
8ddL	.
8b	.
8ffnJ	.
8ddL	.
8b	.
8eeJ	.
8ddL	.
8b	.
8ddJ	.
8eeL	.
8cc	.
8eeJ	.
=18	=18
8aaL	.
8ee	.
8aaJ	.
4.ccc	.
8bbL	.
8gg#X	.
8aaJ	.
8eeL	.
8aa	.
8gg#J	.
=19	=19
8aL	.
8b	.
8ccJ	.
8f#L	.
8g	.
8aJ	.
4d#X	.
8ff#	.
4b	.
8a	.
!!LO:LB:g=original
=20	=20
8eeL	.
8dd#X	.
8eeJ	.
8gL	.
8b	.
8eeJ	.
8eeL	.
8dd#	.
8eeJ	.
8aL	.
8cc	.
8eeJ	.
=21	=21
8eeL	.
8dd#X	.
8eeJ	.
8f#L	.
8ff#	.
8eeJ	.
8dd#L	.
8cc#X	.
8bJ	.
4r	.
8r	.
=22	=22
4.ee`	.
4.ff#`	.
8ggL	.
8ee	.
8bbJ	.
8ggL	.
8ee	.
8cccJ	.
!!LO:LB:g=original
=23	=23
8aaL	.
8ff#	.
8cccJ	.
8aaL	.
8ff#	.
8bbJ	.
8ggL	.
8ee	.
8ggJ	.
8bbL	.
8gg	.
8bbJ	.
=24	=24
4eee	.
8gg	.
4ff#	.
8ddd	.
8eeL	.
8gg	.
8cccJ	.
4dd	.
8bb	.
=25	=25
4cc	.
8aa	.
4b	.
8gg	.
8aL	.
8gg	.
8ff#J	.
8ggL	.
8ff#	.
8eeJ	.
!!LO:LB:g=original
=26	=26
8bL	.
8dd#X	.
8eeJ	.
8ff#L	.
8gg	.
8aaJ	.
8eeL	.
8gg	.
8eeJ	.
8bL	.
8ff#	.
8dd#J	.
=27	=27
8r	.
8r	.
8e	.
8ccL	.
8b	.
8ccJ	.
4d#X	.
8cc	.
8bL	.
8a#X	.
8bJ	.
=28	=28
8r	.
8r	.
8e	p
8ccL	.
8b	.
8ccJ	.
4d#X	.
8cc	.
8bL	.
8a#X	.
8bJ	.
!!LO:LB:g=original
=29	=29
8r	.
8aaL	f
8bbJ	.
8cccL	.
8bb	.
8aaJ	.
8ggL	.
8ff#	.
8eeJ	.
8bL	.
8ff#	.
8dd#XJ	.
=30	=30
8e\L	.
8b	.
8eeJ	.
8bL	.
8dd#	.
8ff#J	.
8eeL	.
8ff#	.
8ggJ	.
8bL	.
8dd#	.
8ff#J	.
=31	=31
8gL	.
8bb	.
8eeJ	.
8bL	.
8ff#	.
8dd#XJ	.
4.e	.
4r	.
8r	.
==	==
*-	*-
!!!RTL1: G. PH. Telemann: Twelve Fantasias for Flute without Bass TWV 40:2-13
!!!RPN1: D'Arcangelo, Rita
!!!RMM1: Da Vinci Classics
!!!RC#1: DV-C00440
!!!RRD1: 2022
!!!RLC1: Andreaskirche, Berlin, Germany
!!!RDT1: 16 September 2020, 17 September 2020
!!!RT#1: 8
!!!RTL2: The Telemann Files: 12 Fantasies for Solo Flute
!!!RPN2: Choi, Jasmine
!!!RMM2: Austrian Gramophone
!!!RC#2: AG0001
!!!RRD2: February 2015
!!!RLC2: LeFrak Hall, Queens, USA
!!!RDT2: 9 June 2014, 10 June 2014
!!!RT#2: 8
!!!RTL3: Georg Philipp Telemann: Twelve Fantasies for Flute
!!!RPN3: Robertello, Thomas
!!!RMM3: Delos
!!!RC#3: DE3396
!!!RRD3: 1 June 2009
!!!RLC3: Clear Creek Recording, Keene, California
!!!RDT3: Unknown
!!!RT#3: 8
